src/assets/icons/settings/unlock.svg

<?xml version="1.0" encoding="UTF-8"?>
<svg width="24px" height="24px" viewBox="0 0 24 24" version="1.1" xmlns="http://www.w3.org/2000/svg" xmlns:xlink="http://www.w3.org/1999/xlink">
    <title>形状结合</title>
    <g id="扩展程序" stroke="none" stroke-width="1" fill="none" fill-rule="evenodd">
        <g id="设置" transform="translate(-40.000000, -530.000000)" fill="#6E7585" fill-rule="nonzero">
            <g id="编组-6备份-8" transform="translate(20.000000, 514.000000)">
                <g id="编组-4备份-23" transform="translate(20.000000, 0.000000)">
                    <g id="形状结合-2" transform="translate(0.000000, 16.000000)">
                        <path d="M19,10 C20.6568542,10 22,11.3431458 22,13 L22,19 C22,20.6568542 20.6568542,22 19,22 L5,22 C3.34314575,22 2,20.6568542 2,19 L2,13 C2,11.3431458 3.34314575,10 5,10 L5,8 C5,4.13400675 8.13400675,1 12,1 C15.8659932,1 19,4.13400675 19,8 L17,8 C17,5.23857625 14.7614237,3 12,3 C9.23857625,3 7,5.23857625 7,8 L7,8 L7,10 L19,10 Z M19,12 L5,12 C4.44771525,12 4,12.4477153 4,13 L4,13 L4,19 C4,19.5522847 4.44771525,20 5,20 L5,20 L19,20 C19.5522847,20 20,19.5522847 20,19 L20,19 L20,13 C20,12.4477153 19.5522847,12 19,12 L19,12 Z M12,14 C12.5522847,14 13,14.4477153 13,15 L13,17 C13,17.5522847 12.5522847,18 12,18 C11.4477153,18 11,17.5522847 11,17 L11,15 C11,14.4477153 11.4477153,14 12,14 Z" id="形状结合"></path>
                    </g>
                </g>
            </g>
        </g>
    </g>
</svg>

<svg width="24" height="24" xmlns="http://www.w3.org/2000/svg"><path d="M19 10a3 3 0 0 1 3 3v6a3 3 0 0 1-3 3H5a3 3 0 0 1-3-3v-6a3 3 0 0 1 3-3V8a7 7 0 1 1 14 0h-2A5 5 0 0 0 7 8v2h12zm0 2H5a1 1 0 0 0-1 1v6a1 1 0 0 0 1 1h14a1 1 0 0 0 1-1v-6a1 1 0 0 0-1-1zm-7 2a1 1 0 0 1 1 1v2a1 1 0 0 1-2 0v-2a1 1 0 0 1 1-1z" fill="#6e7585" fill-rule="nonzero"/></svg>
